assets/images/mastercard.svg

<svg height="48" viewBox="0 0 48 48" width="48" xmlns="http://www.w3.org/2000/svg"><path d="m45 35c0 2.210938-1.789062 4-4 4h-34c-2.210937 0-4-1.789062-4-4v-22c0-2.210937 1.789063-4 4-4h34c2.210938 0 4 1.789063 4 4z" fill="#3f51b5"/><path d="m40 24c0 5.523438-4.476562 10-10 10-5.523437 0-10-4.476562-10-10 0-5.523437 4.476563-10 10-10 5.523438 0 10 4.476563 10 10z" fill="#ffc107"/><path d="m22.015625 30c-.464844-.617187-.863281-1.285156-1.175781-2h5.324219c.277343-.636719.496093-1.304687.636718-2h-6.597656c-.132812-.644531-.203125-1.3125-.203125-2h7c0-.6875-.070312-1.355469-.199219-2h-6.601562c.144531-.695312.359375-1.363281.640625-2h5.324219c-.3125-.714844-.710938-1.382812-1.175782-2h-2.972656c.433594-.578125.929688-1.121094 1.480469-1.59375-1.75-1.496094-4.015625-2.40625-6.496094-2.40625-5.523437 0-10 4.476563-10 10 0 5.523438 4.476563 10 10 10 3.269531 0 6.160156-1.574219 7.984375-4z" fill="#ff3d00"/></svg>

<svg xmlns="http://www.w3.org/2000/svg" width="42" height="30" viewBox="0 0 42 30"><g transform="translate(-3 -9)"><path d="M45,35a4,4,0,0,1-4,4H7a4,4,0,0,1-4-4V13A4,4,0,0,1,7,9H41a4,4,0,0,1,4,4Z" fill="#3f51b5"/><path d="M40,24A10,10,0,1,1,30,14,10,10,0,0,1,40,24Z" fill="#ffc107"/><path d="M22.016,30a9.956,9.956,0,0,1-1.176-2h5.324a9.946,9.946,0,0,0,.637-2H20.2a9.9,9.9,0,0,1-.2-2h7a10.184,10.184,0,0,0-.2-2H20.2a9.956,9.956,0,0,1,.641-2h5.324a9.956,9.956,0,0,0-1.176-2H22.016a10.035,10.035,0,0,1,1.48-1.594A10,10,0,1,0,24.984,30Z" fill="#ff3d00"/></g></svg>
